X:1
T:Title
%%score { ( 1 4 ) | ( 2 3 ) }
L:1/8
Q:1/4=100
M:4/4
K:Bb
V:1 treble nm="Grand Piano"
V:4 treble 
V:2 bass 
V:3 bass 
V:1
 [DF]2 [B,D]>[CE] [DF]2 [FB]2 | [GB]>[FA] [GB]>[EG] [DF]4 | E2 C>D E2 G>G | %3
w: J.~H.~Tenney * * * *|||
 [EG]>[DF] [DF]>[_D=E] [=DF]4 | [DB]2 d>c B2 [FA]2 | [FA]>G [B,GB]>[B,EG] [B,DF]4 | %6
w: |||
 F-[FG] A>B [Gc]2 [Gd]>[Gd] | [Ge]2 [FA]>[EA] [DB]4 | A2 A>B c2 A>A | [DB]2 [DB]>[Ec] [Fd]2 [DB]2 | %10
w: ||||
 [EG]2 [EG]>[FA] [GB]2 [FA]>[EG] | [DF]2 [DB]>[Fd] c4 | A2 A>B c2 A>A | %13
w: |||
 [DB]2 [DB]>[Ec] [Fd]2 [DB]2 | [EG]2 [EG]>[FA] [GB]2 [FB]>[Gc] | d2 c>c [DB]4 |] %16
w: |||
V:2
 [B,,B,]2 [B,,F,]>[B,,F,] [B,,B,]2 [D,B,]2 | [E,B,]2 [E,B,]>[E,B,] [B,,B,]4 | %2
 [F,C]2 [F,A,]>[F,B,] [F,C]2 [F,A,E]>[F,A,E] | [B,,B,]2 [B,,B,]>[B,,B,] [B,,B,]4 | %4
 [B,,B,]2 [F,A,F]>[F,A,E] [G,B,D]2 [D,B,]2 | [E,B,]2 z2 z4 | %6
 z B, [F,CF]>[F,DF] [E,C]2 [D,=B,]>[D,B,] | [C,C]2 [F,C]>[F,C] [B,,B,]4 | %8
 [F,C]2 [F,C]>[F,B,D] [F,A,E]2 [F,CE]>[F,CE] | [B,,B,]2 [B,,B,]>[B,,B,] [B,,B,]2 [B,,B,]2 | %10
 [E,B,]2 [E,B,]>[E,B,] [E,B,]2 [E,B,]>[E,B,] | [B,,B,]2 [B,,B,]>[B,,B,] [F,A,F]4 | %12
 [F,C]2 [F,C]>[F,B,D] [F,A,E]2 [F,CE]>[F,CE] | [B,,B,]2 [B,,B,]>[B,,B,] [B,,B,]2 [B,,B,]2 | %14
 [E,B,]2 [E,B,]>[E,B,] [E,B,]2 [D,B,]>[E,B,] | [F,B,F]2 [F,A,E]>[F,A,E] [B,,B,]4 |] %16
V:3
 x8 | x8 | x8 | x8 | x8 | z z/ E/ E,>E, B,,4 | F,2 z2 z4 | x8 | x8 | x8 | x8 | x8 | x8 | x8 | x8 | %15
 x8 |] %16
V:4
 x8 | x8 | x8 | x8 | x8 | x8 | .A,2 z2 z4 | x8 | x8 | x8 | x8 | x8 | x8 | x8 | x8 | x8 |] %16

